X: 27324
T: Mist Covered Mountain, The
R: jig
M: 6/8
K: Adorian
EAA ABd|edB AGE|~G3 GAB|dBA GED|
EAG AB/c/d|edB ~A2 d|efg dBG|BAG ABG|
~E3 ABd|edB AGE|~G3 ~G3|dBA GED|
EAG AB/c/d|edB AAd|efg dBG|BAG a3|
age a2b|age edB|AGE ~G3|~B3 deg|
age a2b|age edB|AGE G2A|BAG ~A3|
age a2b|age edB|AGE ~G3|A ~B2 GED|
EDE G2A|BAG AB/c/d|edg dBG|BAG A3||

